src/svg/36/home_outline_36.svg

<svg fill="none" height="36" viewBox="0 0 36 36" width="36" xmlns="http://www.w3.org/2000/svg"><path clip-rule="evenodd" d="m16.594 4.59671-11.61457 10.72119c-.78371.7234-1.22943 1.7414-1.22943 2.808v10.9455c0 1.7555 1.42309 3.1786 3.17857 3.1786h9.32143v-8.25c0-.9665.7835-1.75 1.75-1.75s1.75.7835 1.75 1.75v8.25h9.3214c1.7555 0 3.1786-1.4231 3.1786-3.1786v-10.9455c0-1.0666-.4457-2.0846-1.2294-2.808l-3.8076-3.5147c.0242-.0971.037-.1986.037-.3032v-4.49998l-.0065-.1278c-.064-.63032-.5963-1.1222-1.2435-1.1222-.6904 0-1.25.55965-1.25 1.25v2.52963l-5.344-4.93294c-.7941-.73295-2.0179-.73295-2.812 0zm-9.91887 12.55819 11.32487-10.45488 11.3249 10.45488c.271.2501.4251.6022.4251.971v10.9456l-.0074.1002c-.0484.3272-.3305.5783-.6712.5783h-6.8214v-5.75c0-2.3472-1.9028-4.25-4.25-4.25l-.2059.0049c-2.2516.1074-4.0441 1.9669-4.0441 4.2451v5.75h-6.82143c-.37476 0-.67857-.3038-.67857-.6785v-10.9456c0-.3688.15413-.7209.42513-.971z" fill="currentColor" fill-rule="evenodd"/></svg>

<svg width="36" height="36" viewBox="0 0 36 36" fill="none" xmlns="http://www.w3.org/2000/svg">
<path fill-rule="evenodd" clip-rule="evenodd" d="M16.594 4.59668L4.97943 15.3178C4.19572 16.0413 3.75 17.0593 3.75 18.1258V29.0714C3.75 30.8269 5.17309 32.25 6.92857 32.25H16.25V24C16.25 23.0335 17.0335 22.25 18 22.25C18.9665 22.25 19.75 23.0335 19.75 24V32.25H29.0714C30.8269 32.25 32.25 30.8269 32.25 29.0714V18.1258C32.25 17.0593 31.8043 16.0413 31.0206 15.3178L27.213 11.8031C27.2372 11.7061 27.25 11.6045 27.25 11.5V6.99999L27.2435 6.87219C27.1795 6.24187 26.6472 5.74999 26 5.74999C25.3096 5.74999 24.75 6.30963 24.75 6.99999V9.52962L19.406 4.59668C18.6119 3.86373 17.3881 3.86373 16.594 4.59668ZM6.67513 17.1549L18 6.69999L29.3249 17.1549C29.5959 17.405 29.75 17.757 29.75 18.1258V29.0714L29.7426 29.1717C29.6942 29.4989 29.4121 29.75 29.0714 29.75H22.25V24C22.25 21.6528 20.3472 19.75 18 19.75L17.7941 19.7549C15.5425 19.8623 13.75 21.7218 13.75 24V29.75H6.92857C6.55381 29.75 6.25 29.4462 6.25 29.0714V18.1258C6.25 17.757 6.40413 17.405 6.67513 17.1549Z" fill="currentColor"/>
</svg>
